src/actions/24/handle-move.svg

<?xml version="1.0" encoding="UTF-8" standalone="no"?>
<svg xmlns="http://www.w3.org/2000/svg" viewBox="0 0 24 24">
  <defs id="defs3051">
    <style type="text/css" id="current-color-scheme">
      .ColorScheme-Text {
        color:#2e3440;
      }
      </style>
  </defs><g transform="translate(1,1)">
 <path 
     style="fill:currentColor;fill-opacity:1;stroke:none" 
     d="m 11,3.1210938 -1.875,1.875 L 7.9492188,6.171875 8.65625,6.8789062 9.8320312,5.703125 11,4.5351562 12.167969,5.703125 13.34375,6.8789062 14.050781,6.171875 12.875,4.9960938 11,3.1210938 Z M 6.171875,7.9492188 4.9960938,9.125 l -1.875,1.875 1.875,1.875 L 6.171875,14.050781 6.8789062,13.34375 5.703125,12.167969 4.5351562,11 5.703125,9.8320312 6.8789062,8.65625 6.171875,7.9492188 Z m 9.65625,0 L 15.121094,8.65625 16.296875,9.8320312 17.464844,11 16.296875,12.167969 15.121094,13.34375 15.828125,14.050781 17.003906,12.875 18.878906,11 17.003906,9.125 15.828125,7.9492188 Z M 11,8.171875 8.171875,11 11,13.828125 13.828125,11 11,8.171875 Z M 11,9.5859375 12.414062,11 11,12.414062 9.5859375,11 11,9.5859375 Z M 8.65625,15.121094 7.9492188,15.828125 9.125,17.003906 l 1.875,1.875 1.875,-1.875 1.175781,-1.175781 L 13.34375,15.121094 12.167969,16.296875 11,17.464844 9.8320312,16.296875 8.65625,15.121094 Z"
	 class="ColorScheme-Text"
     />
</g></svg>

<svg viewBox="0 0 24 24" xmlns="http://www.w3.org/2000/svg">
 <defs>
  <style type="text/css">.ColorScheme-Text {
        color:#2e3440;
      }</style>
 </defs>
 <g transform="translate(1,1)">
  <path class="ColorScheme-Text" d="m11 3.1211-3.0508 3.0508 0.70703 0.70703 2.3438-2.3438 2.3438 2.3438 0.70703-0.70703-3.0508-3.0508zm-4.8281 4.8281-3.0508 3.0508 3.0508 3.0508 0.70703-0.70703-2.3438-2.3438 2.3438-2.3438-0.70703-0.70703zm9.6562 0-0.70703 0.70703 2.3438 2.3438-2.3438 2.3438 0.70703 0.70703 3.0508-3.0508-3.0508-3.0508zm-4.8281 0.22266-2.8281 2.8281 2.8281 2.8281 2.8281-2.8281-2.8281-2.8281zm0 1.4141 1.4141 1.4141-1.4141 1.4141-1.4141-1.4141 1.4141-1.4141zm-2.3438 5.5352-0.70703 0.70703 3.0508 3.0508 3.0508-3.0508-0.70703-0.70703-2.3438 2.3438-2.3438-2.3438z" fill="currentColor"/>
 </g>
</svg>
